packages/foundations/assets/icons/functional/images/devices/telephone_16.svg

<svg width="16" height="16" viewBox="0 0 16 16" fill="none" xmlns="http://www.w3.org/2000/svg">
<g clip-path="url(#clip0_185_754)">
<path fill-rule="evenodd" clip-rule="evenodd" d="M4.86714 1.82904C5.29334 1.82904 5.71947 1.97106 6.0351 2.30245L7.94482 4.22793C8.19733 4.48052 8.30782 4.78039 8.30782 5.09602C8.30782 5.44326 8.16572 5.79042 7.91322 6.043L7.26611 6.69003C8.05628 7.71962 8.30491 8.01868 9.28632 8.74177L9.98071 8.04737C10.2333 7.79487 10.5647 7.70014 10.8646 7.70014C11.1802 7.70014 11.4801 7.82639 11.7326 8.06313L13.6265 9.98862C13.9579 10.3201 14.1 10.7462 14.1 11.1723C14.1 12.3402 12.285 14.171 10.833 14.171C7.03745 14.171 1.90002 9.03541 1.90002 5.39589C1.90002 3.72898 3.44295 1.82904 4.86714 1.82904ZM4.8496 3.3634C4.81985 3.35992 4.77249 3.37568 4.72512 3.40729C4.06225 3.72292 3.44675 4.65406 3.44675 5.39589C3.44675 8.10541 7.9997 12.6085 10.5647 12.6085C11.3854 12.6085 11.8115 12.2455 12.4902 11.4091C12.6164 11.2196 12.5849 11.1407 12.5375 11.0618L10.8646 9.37311L9.91759 10.2885C9.75981 10.4147 9.58619 10.5252 9.36521 10.5252C8.50972 10.5252 5.49848 7.52151 5.49848 6.59538C5.49848 6.39016 5.56161 6.21654 5.71947 6.07453L6.63484 5.12755L4.9461 3.40729C4.9183 3.37592 4.8871 3.3634 4.8496 3.3634Z" fill="#1A1C1F"/>
</g>
<defs>
<clipPath id="clip0_185_754">
<rect width="16" height="16" fill="white"/>
</clipPath>
</defs>
</svg>

<svg xmlns="http://www.w3.org/2000/svg" width="16" height="16" fill="none"><g clip-path="url(#a)"><path fill="#1A1C1F" fill-rule="evenodd" d="M4.867 1.829c.426 0 .852.142 1.168.473l1.91 1.926c.252.253.363.552.363.868 0 .347-.142.694-.395.947l-.647.647c.79 1.03 1.039 1.329 2.02 2.052l.695-.695c.252-.252.584-.347.884-.347.315 0 .615.126.868.363l1.893 1.926c.332.331.474.757.474 1.183 0 1.168-1.815 2.999-3.267 2.999-3.796 0-8.933-5.136-8.933-8.775 0-1.667 1.543-3.567 2.967-3.567M4.85 3.363c-.03-.003-.078.013-.125.044-.663.316-1.278 1.247-1.278 1.989 0 2.71 4.553 7.212 7.118 7.212.82 0 1.247-.363 1.925-1.199.126-.19.095-.268.047-.347l-1.672-1.689-.947.916c-.158.126-.332.236-.553.236-.855 0-3.867-3.003-3.867-3.93a.66.66 0 0 1 .221-.52l.916-.947-1.689-1.72a.12.12 0 0 0-.096-.045" clip-rule="evenodd"/></g><defs><clipPath id="a"><path fill="#fff" d="M0 0h16v16H0z"/></clipPath></defs></svg>
